src/assets/icons/general/whatsapp.svg

<svg width="24" height="24" viewBox="0 0 24 24" fill="currentColor" xmlns="http://www.w3.org/2000/svg">
<path d="M20.4054 3.4875C18.1607 1.2375 15.1714 0 11.9946 0C5.4375 0 0.101786 5.33571 0.101786 11.8929C0.101786 13.9875 0.648214 16.0339 1.6875 17.8393L0 24L6.30536 22.3446C8.04107 23.2929 9.99643 23.7911 11.9893 23.7911H11.9946C18.5464 23.7911 24 18.4554 24 11.8982C24 8.72143 22.65 5.7375 20.4054 3.4875ZM11.9946 21.7875C10.2161 21.7875 8.475 21.3107 6.95893 20.4107L6.6 20.1964L2.86071 21.1768L3.85714 17.5286L3.62143 17.1536C2.63036 15.5786 2.11071 13.7625 2.11071 11.8929C2.11071 6.44464 6.54643 2.00893 12 2.00893C14.6411 2.00893 17.1214 3.0375 18.9857 4.90714C20.85 6.77679 21.9964 9.25714 21.9911 11.8982C21.9911 17.3518 17.4429 21.7875 11.9946 21.7875ZM17.4161 14.3839C17.1214 14.2339 15.6589 13.5161 15.3857 13.4196C15.1125 13.3179 14.9143 13.2696 14.7161 13.5696C14.5179 13.8696 13.95 14.5339 13.7732 14.7375C13.6018 14.9357 13.425 14.9625 13.1304 14.8125C11.3839 13.9393 10.2375 13.2536 9.08571 11.2768C8.78036 10.7518 9.39107 10.7893 9.95893 9.65357C10.0554 9.45536 10.0071 9.28393 9.93214 9.13393C9.85714 8.98393 9.2625 7.52143 9.01607 6.92679C8.775 6.34821 8.52857 6.42857 8.34643 6.41786C8.175 6.40714 7.97679 6.40714 7.77857 6.40714C7.58036 6.40714 7.25893 6.48214 6.98571 6.77679C6.7125 7.07679 5.94643 7.79464 5.94643 9.25714C5.94643 10.7196 7.0125 12.1339 7.15714 12.3321C7.30714 12.5304 9.25179 15.5304 12.2357 16.8214C14.1214 17.6357 14.8607 17.7054 15.8036 17.5661C16.3768 17.4804 17.5607 16.8482 17.8071 16.1518C18.0536 15.4554 18.0536 14.8607 17.9786 14.7375C17.9089 14.6036 17.7107 14.5286 17.4161 14.3839Z"/>
</svg>

<svg xmlns="http://www.w3.org/2000/svg" width="24" height="24" fill="currentColor" viewBox="0 0 24 24"><path d="M20.405 3.488A11.8 11.8 0 0 0 11.995 0C5.438 0 .102 5.336.102 11.893c0 2.095.546 4.14 1.586 5.946L0 24l6.305-1.655a11.86 11.86 0 0 0 5.684 1.446h.006C18.546 23.791 24 18.455 24 11.898c0-3.177-1.35-6.16-3.595-8.41m-8.41 18.3a9.87 9.87 0 0 1-5.036-1.377l-.359-.215-3.74.98.997-3.647-.236-.375a9.85 9.85 0 0 1-1.51-5.261c0-5.448 4.435-9.884 9.889-9.884a9.8 9.8 0 0 1 6.986 2.898c1.864 1.87 3.01 4.35 3.005 6.991 0 5.454-4.548 9.89-9.996 9.89m5.421-7.404c-.295-.15-1.757-.868-2.03-.964-.273-.102-.472-.15-.67.15s-.766.964-.943 1.168c-.171.198-.348.225-.643.075-1.746-.874-2.892-1.56-4.044-3.536-.306-.525.305-.488.873-1.623.096-.199.048-.37-.027-.52s-.67-1.613-.916-2.207c-.241-.579-.487-.498-.67-.51-.171-.01-.37-.01-.567-.01a1.1 1.1 0 0 0-.793.37c-.273.3-1.04 1.018-1.04 2.48 0 1.463 1.067 2.877 1.211 3.075.15.198 2.095 3.198 5.079 4.49 1.885.814 2.625.883 3.568.744.573-.086 1.757-.718 2.003-1.414.247-.697.247-1.291.172-1.415-.07-.133-.268-.208-.563-.353"/></svg>
